dist/svgs/unicons/line/medical-square.svg

<svg xmlns="http://www.w3.org/2000/svg" data-name="Layer 1" viewBox="0 0 24 24"><path d="M19 2H5a3 3 0 00-3 3v14a3 3 0 003 3h14a3 3 0 003-3V5a3 3 0 00-3-3zm1 17a1 1 0 01-1 1H5a1 1 0 01-1-1V5a1 1 0 011-1h14a1 1 0 011 1zM17 9h-2V7a1 1 0 00-1-1h-4a1 1 0 00-1 1v2H7a1 1 0 00-1 1v4a1 1 0 001 1h2v2a1 1 0 001 1h4a1 1 0 001-1v-2h2a1 1 0 001-1v-4a1 1 0 00-1-1zm-1 4h-2a1 1 0 00-1 1v2h-2v-2a1 1 0 00-1-1H8v-2h2a1 1 0 001-1V8h2v2a1 1 0 001 1h2z"/></svg>

<svg xmlns="http://www.w3.org/2000/svg" data-name="Layer 1" viewBox="0 0 24 24"><path d="M19,2H5A3,3,0,0,0,2,5V19a3,3,0,0,0,3,3H19a3,3,0,0,0,3-3V5A3,3,0,0,0,19,2Zm1,17a1,1,0,0,1-1,1H5a1,1,0,0,1-1-1V5A1,1,0,0,1,5,4H19a1,1,0,0,1,1,1ZM17,9H15V7a1,1,0,0,0-1-1H10A1,1,0,0,0,9,7V9H7a1,1,0,0,0-1,1v4a1,1,0,0,0,1,1H9v2a1,1,0,0,0,1,1h4a1,1,0,0,0,1-1V15h2a1,1,0,0,0,1-1V10A1,1,0,0,0,17,9Zm-1,4H14a1,1,0,0,0-1,1v2H11V14a1,1,0,0,0-1-1H8V11h2a1,1,0,0,0,1-1V8h2v2a1,1,0,0,0,1,1h2Z"/></svg>
